svgs/sharp-thin/road.svg

<svg xmlns="http://www.w3.org/2000/svg" viewBox="0 0 576 512"><!--! Font Awesome Pro 6.6.0 by @fontawesome - https://fontawesome.com License - https://fontawesome.com/license (Commercial License) Copyright 2024 Fonticons, Inc. --><path d="M21.2 464L280 464l0-56 0-8 16 0 0 8 0 56 258.8 0L435.9 48 296 48l0 56 0 8-16 0 0-8 0-56L140.1 48 21.2 464zM128 32l320 0L571.4 464l4.6 16-16.6 0L16.6 480 0 480l4.6-16L128 32zM296 200l0 112 0 8-16 0 0-8 0-112 0-8 16 0 0 8z"/></svg>

<svg xmlns="http://www.w3.org/2000/svg" viewBox="0 0 576 512"><!--! Font Awesome Pro 6.5.2 by @fontawesome - https://fontawesome.com License - https://fontawesome.com/license (Commercial License) Copyright 2024 Fonticons, Inc. --><path d="M21.2 464H280V408v-8h16v8 56H554.8L435.9 48H296v56 8H280v-8V48H140.1L21.2 464zM128 32H448L571.4 464l4.6 16H559.4 16.6 0l4.6-16L128 32zM296 200V312v8H280v-8V200v-8h16v8z"/></svg>
